X:1
T:The Scartaglen
L:1/8
M:4/4
I:linebreak $
K:D
V:1 treble 
V:1
|: DFEF D2 Ad | cAAG EFGE | DFEF D2 Ad | cAGE AD D2 DFEF D2 Ad |$ cAAG EFGE | Addc dfed | %6
 cAGE ED D2 :| f3 e fdge | fdge afde | f3 e fage |$ f2 ec Ad d2 | f3 e fdge | fdge afde | %13
 fage dfed | cAGE AD D2 | f3 e fdge |$ fdge afde | f3 e fage | f2 ec Ad d2 | f3 e fdge | %20
 fdge afde | fage dfec |$ dcAGEFGE | %23
